X:1
T:Title
%%score { ( 1 3 ) | ( 2 4 ) }
L:1/8
M:3/4
K:G
V:1 treble nm="Grand Piano"
V:3 treble 
V:2 bass 
V:4 bass 
V:1
 z2 z2[Q:1/4=106] D>D | [B,DG]4 G>A | B4 B>c | d2 e2 d2 | B4 G>B | [FA]2 [FA]2 [FA]2 | %6
 [FA]2 [EG]2 [FA]2 |[M:4/4] [DGB]6 [CD]>[CD] |[M:3/4] [B,DG]2 [G,DG]2 [DFA]2 | B4 B>c | d2 e2 d2 | %11
 B4 G>B | [EA]2 [EA]2 [EA]2 | [EAc]2 [DGB]2 [CFA]2 | [B,DG]6 |[M:1/4] [Gd]>[Gd] | %16
[M:3/4] [Ge]4 [Ge]>[Gd] | [Gc]4 [Ge]>[Ge] | [Gd]2 [Fd]2 [Fc]2 | B4 B>B | A2 z2 A>A | A2 B2 ^c2 | %22
 [Fd-]4 [Gd-]2 | [Ad]4 [CD]>[CD] | [B,DG]4 G>A | B4 B>c | d2 e2 d2 | B4 G>B | [EA]2 [EA]2 [EA]2 | %29
 [EAc]2 [DGB]2 [CFA]2 | [B,DG]6 |] %31
V:2
 z2 z2 D,>D, | G,,4 [G,B,D]>[G,CD] | [G,DG]4 [G,DG]>[G,DG] | [G,B,G]2 [G,CG]2 [G,B,G]2 | %4
 [G,DG]4 [G,B,]>[G,DG] | [D,D]2 [D,D]2 [D,D]2 | [D,D]2 [D,D]2 [D,D]2 |[M:4/4] G,6 D,>D, | %8
[M:3/4] G,,2 B,,2 D,2 | [G,DG]4 [G,DG]>[G,DG] | [G,B,G]2 [G,CG]2 [G,B,G]2 | [G,DG]4 [G,B,]>[G,DG] | %12
 [C,C]2 [C,C]2 [C,C]2 | A,,2 D,2 D,2 | G,,6 |[M:1/4] [G,B,]>[G,B,] |[M:3/4] [C,C]4 [C,C]>[D,B,] | %17
 [E,C]4 [C,C]>[C,C] | [D,B,]2 [D,A,]2 [D,D]2 | [G,DG]4 [G,DG]>[G,DG] | [A,DF]2 z2 [A,DF]>[A,DF] | %21
 [A,^CG]2 [A,DG]2 [A,EG]2 | z2 A,2 B,2 | C4 D,>D, | G,,4[K:treble] [G,B,D]>[G,CD] | %25
 [G,DG]4 [G,DG]>[G,DG] | [G,B,G]2 [G,CG]2 [G,B,G]2 | [G,DG]4 [G,B,]>[G,DG] | [C,C]2 [C,C]2 [C,C]2 | %29
 A,,2 D,2 D,2 | G,,6 |] %31
V:3
 x6 | x6 | x6 | x6 | x6 | x6 | x6 |[M:4/4] x8 |[M:3/4] x6 | x6 | x6 | x6 | x6 | x6 | x6 | %15
[M:1/4] x2 |[M:3/4] x6 | x6 | x6 | x6 | x6 | x6 | D2 z2 z2 | x6 | x6 | x6 | x6 | x6 | x6 | x6 | %30
 x6 |] %31
V:4
 x6 | x6 | x6 | x6 | x6 | x6 | x6 |[M:4/4] x8 |[M:3/4] x6 | x6 | x6 | x6 | x6 | x6 | x6 | %15
[M:1/4] x2 |[M:3/4] x6 | x6 | x6 | x6 | x6 | x6 | D,6- | D,4 z2 | x4[K:treble] x2 | x6 | x6 | x6 | %28
 x6 | x6 | x6 |] %31

